X: 1
T:La calma de la mar
T:Quan jo tenia pocs anys
C:anon.
O:Spain
A:Catalana
Z:Transcribed by Frank Nordberg - http://www.musicaviva.com
M:6/8
L:1/8
Q:1/8=110
K:A
"A"EF>G AG>F|"D"F6|"D"FG>A BA>G|"A"FE2-E3|
w:Quan jo te-ni-a pocs anys. El pa-re_em du-ia_a la bar-ca,
"A"EF>G AG>F|"E7"D6|"E7"DE>F GF>E|"A"DC2-C3|
w:i_em de-ia quan-si-quis gran no_et fi-is mai de la cal-ma.
"A"ec>A ec>A|"A"e6|"A"ABc "E7"eee|"A"cA2-A3|
w:Bu-fa ven-tet de Gar-bi, vent en po-pa_i mar bo-nan-\cca.
"D"ABc "Bm"ddc|"E7"B6|"Bm"Bcd "E7"eee|"A"cA2-A3|]
w:a-ni-rem cap a lle-vant fins a la ra-lla de Fran-\cca.
W:
W:Quan jo tenia pocs anys
W:el pare em duia a la barca,
W:i em deia: quam siguis gran
W:no et fiis mai de la calma.
W:
W:Bufa, ventet de garbi,
W:vent en popa i mar bonan\cca;
W:amrem cap a Llevant
W:fins a la ratlla de Fran\cca!
W:
W:He estat un home valent
W:i no he girat mai la cara;
W:quan he sentit a la pell
W:l'urpa de la turbonada.
W:
W:Mes, ai, avui que s\'oc vell
W:i ja no em llevo a trenc d'alba,
W:compto les hores despert
W:i em fa basarda la calma.
W:
W:Bufa, ventet de garbi,
W:vent en popa i mar bonan\cca;
W:anirem cap a Llevant
W:fins a la ratlla de Fran\cca!
